app/dist/common/images/ube-industries.svg

<svg height="18" viewBox="0 0 18 18" width="18" xmlns="http://www.w3.org/2000/svg"><path d="m0 0h18v18h-18z" fill="#f0f3fa"/><g fill="#0070ac"><path d="m5.8 7-.51 3h-2.26l.5-3h-1.02l-.51 2.98c-.03.2-.06 1.02 1.05 1.02h1.95c1.08 0 1.26-.6 1.34-1.02l.49-2.98h-1.05zm4.6 0h-3.13l-.66 4h3.15c1.08 0 1.26-.6 1.33-1.02l.08-.5c.05-.28-.09-.5-.31-.55v-.03c.26 0 .44-.17.49-.5l.06-.36c.02-.08.15-1.04-1-1.04zm-.1 1.67h-1.83l-.15.66h1.85l-.1.67h-2.27l.35-2h2.24l-.1.67zm1.5-.65-.33 1.96c-.03.19-.04 1.02 1.05 1.02h2.81l.17-1h-3l.34-2h3l.16-1h-2.82c-1.22 0-1.33.71-1.39 1.02z"/><path d="m12.98 9.33h2.62l.1-.66h-2.57z"/></g></svg>

<!-- by TradingView --><svg width="18" height="18" viewBox="0 0 18 18" xmlns="http://www.w3.org/2000/svg"><path fill="#F0F3FA" d="M0 0h18v18H0z"/><path d="m5.8 7-.51 3H3.03l.5-3H2.51L2 9.98c-.03.2-.06 1.02 1.05 1.02H5c1.08 0 1.26-.6 1.34-1.02L6.83 7H5.78ZM10.4 7H7.27l-.66 4h3.15c1.08 0 1.26-.6 1.33-1.02l.08-.5c.05-.28-.09-.5-.31-.55V8.9c.26 0 .44-.17.49-.5l.06-.36c.02-.08.15-1.04-1-1.04Zm-.1 1.67H8.47l-.15.66h1.85l-.1.67H7.8l.35-2h2.24l-.1.67ZM11.8 8.02l-.33 1.96c-.03.19-.04 1.02 1.05 1.02h2.81l.17-1h-3l.34-2h3L16 7h-2.82c-1.22 0-1.33.71-1.39 1.02Z" fill="#0070AC"/><path d="M12.98 9.33h2.62l.1-.66h-2.57l-.15.66Z" fill="#0070AC"/></svg>
